X: 43175
T: Wirtshaus-Zwiefacher
R: polka
M: 2/4
K: Gmajor
[M:3/4]GA B2G2|[M:2/4]B2G2|[M:3/4]B3c B2|[M:2/4]A4|[M:3/4]AB c2A2|[M:2/4]c2A2|[M:3/4]c3d c2|[M:2/4]B4:|
|:[M:3/4]d2e2d2|[M:2/4]c4|d2c2|B4|[M:3/4]A3B c2|[M:2/4]d4|[M:3/4]d2e2d2|[M:2/4]c4|d2c2|B4|[M:3/4]A3G F2|[M:2/4]G4:|

